!!!!SEGMENT: pl-gd--ee-1638--006-028_marenzio-luca--il-quinto-libro-de-madrigalia-a-cinque-voci-s-io-visci-cieco.krn
!!!cenid: 15xx:910
!!!COM: Marenzio, Luca
!!!COM-rismID: pe30003955
!!!CDT: ~1553-1599/08/22
!!!CNT: Italian
!!!GTL: Il Quinto libro de madrigalia a cinque voci
!!!OTL: S' io visci cieco
!!!OMV: 028
!!!PDT: 1555
!!!AGN:
!!!SMS-siglum: PL-GD
!!!SMS-shelfmark: Ee 1608
!!!SMS-variant:
!!!SMS-altvar:
!!!SMS-shelfwork: 006-028 G
!!!NIFC-rismSourceID: 990039296
!!!NIFC-islandoraID: pl-gd:57883
!!!URL-pdf-islandora: https://repozytorium.nifc.pl/islandora/object/pl-gd%3A57883/datastream/PDF/view
!!!URL-scan: https://polish.musicsources.pl/pl/lokalizacje/galeria/klocki-introligatorskie/655 @EN{Scan on Polish Music Herritage in Open Access Website} @PL{Skany w portalu Dziedzictwo Muzyki Polskiej w otwartym dostępie}
!!!ONB-nifc:
!!!AIN: 1 alto 1 bass  1 soprn 1 tenor 1 vox
!!!key: g
**kern	**text	**kern	**text	**kern	**text	**kern	**text	**kern	**text
*part5	*part5	*part4	*part4	*part3	*part3	*part2	*part2	*part1	*part1
*staff5	*staff5	*staff4	*staff4	*staff3	*staff3	*staff2	*staff2	*staff1	*staff1
*I"BASSO	*	*I"TENORE	*	*I"QVINTO	*	*I"ALTO	*	*I"CANTO	*
*I'B	*	*I'T	*	*I'V	*	*I'A	*	*I'S	*
*ICvox	*	*ICvox	*	*ICvox	*	*ICvox	*	*ICvox	*
*Ibass 	*	*Itenor	*	*Ivox	*	*Ialto	*	*Isoprn	*
*clefF4	*	*clefC4	*	*clefC4	*	*clefC3	*	*clefC1	*
*k[b-e-]	*	*k[e-b-]	*	*k[e-b-]	*	*k[b-e-]	*	*k[b-e-]	*
*g:	*	*g:	*	*g:	*	*g:	*	*g:	*
*M2/2	*	*M2/2	*	*M2/2	*	*M2/2	*	*M2/2	*
*met(C|)	*	*met(C|)	*	*met(C|)	*	*met(C|)	*	*met(C|)	*
=1-	=1-	=1-	=1-	=1-	=1-	=1-	=1-	=1-	=1-
!LO:TX:a:t=Prima parte&colon;	!	!LO:TX:a:t=Prima parte&colon;	!	!LO:TX:a:t=Prima parte&colon;	!	!LO:TX:a:t=Prima parte&colon;	!	!LO:TX:a:t=Prima parte&colon;	!
!LO:TX:t=P:problem:podwójnie zapisany znak przykluczowy, kolejno: BB- E- B-	!	!LO:TX:t=P:problem:podwójnie zapisany znak przykluczowy, kolejno: E- B- e-	!	!LO:TX:t=P:problem:podwójnie zapisany znak przykluczowy, kolejno: E- B- e-	!	!LO:TX:t=P:problem:podwójnie zapisany znak przykluczowy, kolejno: B- e- b-	!	!LO:TX:t=P:problem:podwójnie zapisany znak przykluczowy, kolejno: B- e- b-	!
00r	.	00r	.	00r	.	2r	.	1d	S'Io
.	.	.	.	.	.	2d\	S'Io	.	.
=2-	=2-	=2-	=2-	=2-	=2-	=2-	=2-	=2-	=2-
.	.	.	.	.	.	2d\	vi-	2f/	vi-
.	.	.	.	.	.	2B-/	ſsi	2g/	ſsi
=3-	=3-	=3-	=3-	=3-	=3-	=3-	=3-	=3-	=3-
.	.	.	.	.	.	1c	cie-	1e-	cie-
=4-	=4-	=4-	=4-	=4-	=4-	=4-	=4-	=4-	=4-
.	.	.	.	.	.	0d	-co	1d	-co
=5-	=5-	=5-	=5-	=5-	=5-	=5-	=5-	=5-	=5-
2r	.	1D	S'Io	2r	.	.	.	2r	.
2BB-/	S'Io	.	.	2d\	S'Io	.	.	1b-\	e
=6-	=6-	=6-	=6-	=6-	=6-	=6-	=6-	=6-	=6-
2D/	vi-	2F/	vi-	2d\	vi-	2r	.	.	.
2E-\	ſi	2G/	-ſi	2B-\	ſsi	2G/	s'io	1g\	gra-
=7-	=7-	=7-	=7-	=7-	=7-	=7-	=7-	=7-	=7-
1C	cie-	1E-	cie-	1c	cie-	2G/	vi-	.	.
.	.	.	.	.	.	2E-/	-ſi	2a\	-ve
=8-	=8-	=8-	=8-	=8-	=8-	=8-	=8-	=8-	=8-
1BB-	-co	1D	-co	1d	-co	1F	cie-	2b-\	fall'
.	.	.	.	.	.	.	.	1b-\	in-
=9-	=9-	=9-	=9-	=9-	=9-	=9-	=9-	=9-	=9-
*	*	*	*ij	*	*	*	*	*	*
2r	.	1d	S'ie	2r	.	2G/	-co	.	.
*	*ij	*	*	*	*ij	*	*	*	*
2D/	S'Io	.	.	2F/	S'ie	2r	.	1a\	-d-
=10-	=10-	=10-	=10-	=10-	=10-	=10-	=10-	=10-	=10-
2F\	vi-	2d\	vi-	2A/	vi-	2r	.	.	.
2G\	-ſi	2B-\	-ſi	2B-\	ſi	2d\	et	1g\	-gno
=11-	=11-	=11-	=11-	=11-	=11-	=11-	=11-	=11-	=11-
1E-	cie-	1c	cie-	1G	cie-	2c/	gra-	.	.
!	!	!	!	!	!	!LO:SIC:v:t=custos A	!	!	!
.	.	.	.	.	.	2G/	ue	1cc\	Fin
!	!	!	!	!	!	!LO:LB:g=original	!	!	!
=12-	=12-	=12-	=12-	=12-	=12-	=12-	=12-	=12-	=12-
1D	-co	1d	-co	0F	-cio	2A/	fall'	.	.
.	.	.	.	.	.	2B-/	in-	1b-\	qui
*	*	*	*	*	*Xij	*	*	*	*
=13-	=13-	=13-	=13-	=13-	=13-	=13-	=13-	=13-	=13-
1r	.	1r	.	.	.	1c	-d-	.	.
!	!	!	!	!	!	!	!	!LO:SIC:v:t=custos b-	!
.	.	.	.	.	.	.	.	2a\	com-
!	!	!	!	!	!	!	!	!LO:LB:g=original	!
=14-	=14-	=14-	=14-	=14-	=14-	=14-	=14-	=14-	=14-
2r	.	1G	S'io	2r	.	1d	-gno	2.b-\	-mi-
2G\	S'Io	.	.	2B-\	S'io	.	.	.	.
.	.	.	.	.	.	.	.	4a\	.
=15-	=15-	=15-	=15-	=15-	=15-	=15-	=15-	=15-	=15-
2G\	vi-	2B-\	vi-	2d\	vi-	1r	.	1g	.
2E-\	-ſi	2c\	-ſi	2e-\	ſi	.	.	.	.
=16-	=16-	=16-	=16-	=16-	=16-	=16-	=16-	=16-	=16-
!LO:SIC:v:t=custos G	!	!	!	!	!	!	!	!	!
1F	cie-	1A-	cie-	1.c	cie-	2r	.	1f	-ſi
.	.	.	.	.	.	2f\	Fin	.	.
!LO:LB:g=original	!	!	!	!	!	!	!	!	!
=17-	=17-	=17-	=17-	=17-	=17-	=17-	=17-	=17-	=17-
1G	-co	1G	-co	.	.	2e-\	qui	2r	.
!	!	!	!	!LO:SIC:v:t=custos c	!	!	!	!	!
!	!	!	!	!LO:N:acc=#	!	!	!	!	!
.	.	.	.	2Bn\	co e	2d\	com-	1g\	Fin
!	!	!	!	!LO:LB:g=original	!	!	!	!	!
*	*Xij	*	*Xij	*	*	*	*	*	*
=18-	=18-	=18-	=18-	=18-	=18-	=18-	=18-	=18-	=18-
2r	.	2r	.	2c\	gra-	2.e-\	-mi-	.	.
1E-\	e	1G/	e	2G/	-ve	.	.	1b-\	qui
.	.	.	.	.	.	4d\	.	.	.
=19-	=19-	=19-	=19-	=19-	=19-	=19-	=19-	=19-	=19-
.	.	.	.	2e-\	ſall'-	1c	.	.	.
!	!	!LO:SIC:v:t=custos F	!	!	!	!	!	!	!
2C/	gra-	2E-/	gra-	2e-\	-in-	.	.	2a\	com-
!	!	!LO:LB:g=original	!	!	!	!	!	!	!
=20-	=20-	=20-	=20-	=20-	=20-	=20-	=20-	=20-	=20-
2D/	-ne	2F/	-ue	2d\	-de-	1B-	-ſi	2.b-\	-mi-
1E-\	fall'-	1G/	fall'-	2B-y\	-gno	.	.	.	.
.	.	.	.	.	.	.	.	4a\	.
=21-	=21-	=21-	=21-	=21-	=21-	=21-	=21-	=21-	=21-
.	.	.	.	2r	.	1r	.	1g	.
2E-\	-in-	2G/	-in-	1c\	Fin	.	.	.	.
=22-	=22-	=22-	=22-	=22-	=22-	=22-	=22-	=22-	=22-
1D	-de-	2Any/	-de-	.	.	2r	.	1f	-ſi
*	*	*	*	*	*	*	*ij	*	*
.	.	2B-\	.	1B-\	qui	2f\	Fin	.	.
=23-	=23-	=23-	=23-	=23-	=23-	=23-	=23-	=23-	=23-
2C/	-gno	1c	-gno	.	.	2e-\	qui	1r	.
2F\	Fin	.	.	2A/	com-	2c/	com-	.	.
=24-	=24-	=24-	=24-	=24-	=24-	=24-	=24-	=24-	=24-
2E-\	qui	2r	.	2.B-\	-mi-	2e-\	-mi-	2r	.
*	*	*	*	*	*	*	*	*	*ij
2D/	com-	2d\	Fin	.	.	4f\	-ſi	2f/	Fin
*	*	*	*	*	*	*	*Xij	*	*
.	.	.	.	4A/	.	4F/	Fin	.	.
=25-	=25-	=25-	=25-	=25-	=25-	=25-	=25-	=25-	=25-
2.E-\	-mi-	2c\	qui	2.G/	.	4G/	qui	2e-/	gui
.	.	.	.	.	.	4A/	com-	.	.
.	.	2B-\	com-	.	.	2.B-/	-mi-	2e-/	com-
4D/	.	.	.	4F/	.	.	.	.	.
=26-	=26-	=26-	=26-	=26-	=26-	=26-	=26-	=26-	=26-
1C	.	1c	-mi-	2E-/	.	.	.	1e-	-mi-
.	.	.	.	.	.	8A/	.	.	.
!	!	!	!	!	!	!LO:SIC:v:t=custos A	!	!	!
.	.	.	.	.	.	8G/	.	.	.
!	!	!	!	!	!	!LO:LB:g=original	!	!	!
.	.	.	.	2E-/	-ſi	2A/	.	.	.
=27-	=27-	=27-	=27-	=27-	=27-	=27-	=27-	=27-	=27-
1BB-	-ſi	1F	-ſi	1r	.	1B-	-ſi	1d	-ſi
*	*	*	*	*	*	*	*	*	*Xij
=28-	=28-	=28-	=28-	=28-	=28-	=28-	=28-	=28-	=28-
1r	.	2r	.	1B-	Hor	1r	.	2r	.
.	.	4B-\	Ch'io	.	.	.	.	4d/	Ch'io
.	.	4c\	mi	.	.	.	.	4e-/	mi
=29-	=29-	=29-	=29-	=29-	=29-	=29-	=29-	=29-	=29-
1BB-	Hor	2d\	ſpe-	2r	.	2r	.	2f/	ſpe-
.	.	2d\	-cchio	4B-\	ch'io	4d\	ch'io	2f/	-cchio
.	.	.	.	4c\	mi	4e-\	mi	.	.
=30-	=30-	=30-	=30-	=30-	=30-	=30-	=30-	=30-	=30-
2r	.	1B-	hor	2d\	ſpe-	2f\	ſpe-	2r	.
!	!	!	!	!LO:SIC:v:t=custos A	!	!	!	!	!
4D\	ch'io	.	.	2d\	-cchi'o	2f\	-cchi'e	4f/	ch'io
!LO:SIC:v:t=custos F	!	!	!	!	!	!	!	!LO:SIC:v:t=custos a-	!
4E-\	mi	.	.	.	.	.	.	4g/	mi
!LO:LB:g=original	!	!	!	!LO:LB:g=original	!	!	!	!LO:LB:g=original	!
=31-	=31-	=31-	=31-	=31-	=31-	=31-	=31-	=31-	=31-
2F\	ſpe-	2r	.	4A/	ch'io	1c	ſen-	2a\	ſpe-
.	.	.	.	4B-\	mi	.	.	.	.
2F\	-cchi'e	4A/	ch'io	2c\	ſpe-	.	.	2a\	-cchio
.	.	4B-\	mi	.	.	.	.	.	.
=32-	=32-	=32-	=32-	=32-	=32-	=32-	=32-	=32-	=32-
1E-	ſe-	2c\	ſpe-	2G/	-cchi'e	2e-\	-to	1g	e ſen-
!	!	!LO:SIC:v:t=custos B-	!	!	!	!	!	!	!
.	.	2G/	-cchi'e	2E-/	ſen-	2B-/	Che	.	.
!	!	!LO:LB:g=original	!	!	!	!	!	!	!
=33-	=33-	=33-	=33-	=33-	=33-	=33-	=33-	=33-	=33-
2BB-/	-nto	2B-\	ſen-	1F	-to	4d\	tant'-	2f/	-to
.	.	.	.	.	.	4e-\	-hò	.	.
4r	.	2c\	-to	.	.	4f\	di	2a\	Che
4F\	Che	.	.	.	.	4f\	ra-	.	.
=34-	=34-	=34-	=34-	=34-	=34-	=34-	=34-	=34-	=34-
4G\	tant'-	1r	.	2r	.	2B-/	-gion	4b-\	tant'-
4A\	-hò	.	.	.	.	.	.	4cc\	-hò
4B-\	di	.	.	4r	.	2f\	var-	4dd\	di
4B-\	ra-	.	.	4B-\	var-	.	.	4dd\	ra-
=35-	=35-	=35-	=35-	=35-	=35-	=35-	=35-	=35-	=35-
2E-\	-gion	2r	.	4c\	-cat'	4e-\	-cat'	2g/	-gion
.	.	.	.	4B-\	il	4d\	il	.	.
2r	.	4r	.	2A/	ſe-	2c/	ſe-	2f/	var-
.	.	4F/	Che	.	.	.	.	.	.
=36-	=36-	=36-	=36-	=36-	=36-	=36-	=36-	=36-	=36-
!	!	!	!	!	!	!LO:SIC:v:t=custos f	!	!	!
2r	.	4G/	tant'-	2B-\	-gno	2g\	-gno	2e-/	-ca-
.	.	4A/	-hò	.	.	.	.	.	.
!	!	!	!	!	!	!LO:LB:g=original	!	!	!
*	*ij	*	*	*	*	*	*	*	*
2BB-/	Che	4B-\	di	4r	.	4r	.	2d/	-t'il
.	.	4B-\	ra-	4F/	Che	4f\	var-	.	.
=37-	=37-	=37-	=37-	=37-	=37-	=37-	=37-	=37-	=37-
4E-\	tant'-	1E-	-gion	4G/	tant-	2.e-\	-ca-	2c/	ſe-
4F\	-hò	.	.	4A/	-'ho	.	.	.	.
4G\	di	.	.	4B-\	di	.	.	2B-/	-gno
4G\	ra-	.	.	4B-\	ra-	4d\	-t'il	.	.
=38-	=38-	=38-	=38-	=38-	=38-	=38-	=38-	=38-	=38-
2C/	-gion	4r	.	2E-/	-gion	1c	ſe-	2r	.
.	.	4G/	'var-	.	.	.	.	.	.
*	*Xij	*	*	*	*	*	*	*	*
2F\	var-	4A/	-cat'	4r	.	.	.	2f/	Che
!	!	!	!	!LO:SIC:v:t=custos G	!	!	!	!	!
.	.	4A/	il	4F/	Che	.	.	.	.
!	!	!	!	!LO:LB:g=original	!	!	!	!	!
=39-	=39-	=39-	=39-	=39-	=39-	=39-	=39-	=39-	=39-
2E-\	-cat'	2B-\	ſe-	4G/	tant'-	2g\	-gno	4b-\	tãt'-
.	.	.	.	4A/	-hò	.	.	4cc\	-hò
!LO:SIC:v:t=custos C	!	!	!	!	!	!	!	!	!
2D/	il	4F/	-gno	4B-\	ra-	4r	.	4dd\	di
!	!	!	!	!	!	!	!	!LO:SIC:v:t=custos g	!
.	.	4F/	Che	4B-\	-gion	4d\	Che	4dd\	ra-
!LO:LB:g=original	!	!	!	!	!	!	!	!LO:LB:g=original	!
=40-	=40-	=40-	=40-	=40-	=40-	=40-	=40-	=40-	=40-
*	*	*	*	*	*ij	*	*	*	*
2C/	ſe-	4G/	tan't-	4c\	Che	4e-\	tat'-	4g/	-gion
.	.	4A/	-hò	4c\	tant'-	4f\	-hò	4cc\	var-
4G\	-gno	4B-\	di	4d\	-hò	4g\	di	2b-\	-ca-
!	!	!LO:SIC:v:t=custos F	!	!	!	!	!	!	!
4GG/	Che	4G/	ra-	4e-\	di	4g\	ra-	.	.
!	!	!LO:LB:g=original	!	!	!	!	!	!	!
=41-	=41-	=41-	=41-	=41-	=41-	=41-	=41-	=41-	=41-
4AA/	tant'-	2F/	-gion	4f\	ra-	4c/	-gion	2a\	-t'il
4BB-/	-hò	.	.	4f\	-gion	2f\	var-	.	.
*	*	*	*	*	*Xij	*	*	*	*
4C/	di	4r	.	2c\	var-	.	.	2g/	ſe-
4C/	ra-	4G/	Che	.	.	2e-\	-cat'	.	.
=42-	=42-	=42-	=42-	=42-	=42-	=42-	=42-	=42-	=42-
2FF/	-gion	4A/	tãt'	4c\	-ca-	.	.	1f	-gno
.	.	4B-\	ho	2B-\	-t'	4d\	-'il	.	.
2F\	var-	4c\	di	.	.	1c\	ſe-	.	.
.	.	4c\	ra-	4A/	il	.	.	.	.
=43-	=43-	=43-	=43-	=43-	=43-	=43-	=43-	=43-	=43-
2E-\	-cat'	4C/	-gion	2G/	ſe-	.	.	2r	.
.	.	2c\	var-	.	.	.	.	.	.
2D/	il	.	.	2F/	-gno	2d\	-gno	2f/	var-
.	.	2B-\	-ca-	.	.	.	.	.	.
=44-	=44-	=44-	=44-	=44-	=44-	=44-	=44-	=44-	=44-
!	!	!	!	!	!	!	!	!LO:N:acc=#	!
1C	ſe-	.	.	1r	.	2r	.	4en/	-cat'
.	.	4A/	-t'	.	.	.	.	2f/	il
.	.	2G/	il	.	.	2c/	In	.	.
!	!	!	!	!	!	!	!	!LO:N:acc=#	!
.	.	.	.	.	.	.	.	4en/	ſe-
=45-	=45-	=45-	=45-	=45-	=45-	=45-	=45-	=45-	=45-
1BB-	-gno	2.B-\	ſe-	2r	.	2d\	pro-	1f	-gno
!	!	!	!	!	!	!LO:SIC:v:t=custos e-	!	!	!
.	.	.	.	2F/	In	2d\	-cu-	.	.
.	.	4A/	.	.	.	.	.	.	.
!	!	!	!	!	!	!LO:LB:g=original	!	!	!
=46-	=46-	=46-	=46-	=46-	=46-	=46-	=46-	=46-	=46-
1r	.	1G	-gno	2E-/	pro-	1e-	-ran-	2r	.
.	.	.	.	2E-/	-cu-	.	.	2c/	In
=47-	=47-	=47-	=47-	=47-	=47-	=47-	=47-	=47-	=47-
!	!	!	!	!LO:SIC:v:t=custos C	!	!	!	!	!
1r	.	2r	.	1D	-ran-	1f	-do	2d/	pro-
.	.	2F/	In	.	.	.	.	2d/	-cu-
!	!	!	!	!LO:LB:g=original	!	!	!	!	!
=48-	=48-	=48-	=48-	=48-	=48-	=48-	=48-	=48-	=48-
2r	.	2E-/	pro-	1C	-do	1g	pur	1e-y	-ran-
2C/	In	2E-/	-cu-	.	.	.	.	.	.
=49-	=49-	=49-	=49-	=49-	=49-	=49-	=49-	=49-	=49-
2D/	pro-	1D	-ran-	1BB-	pur	2r	.	1f	-do
2D/	-cu-	.	.	.	.	1f\	dã-	.	.
=50-	=50-	=50-	=50-	=50-	=50-	=50-	=50-	=50-	=50-
1E-	-ran-	1C	-do	2r	.	.	.	1g	pur
.	.	.	.	2G/	dan	1e-\	-(n)no et	.	.
=51-	=51-	=51-	=51-	=51-	=51-	=51-	=51-	=51-	=51-
!LO:SIC:v:t=custos G	!	!LO:SIC:v:t=custos G	!	!	!	!	!	!	!
1F	-do	1BB-	pur	2B-\	n' et	.	.	1r	.
.	.	.	.	1B-\	tor-	1d\	tor-	.	.
!LO:LB:g=original	!	!LO:LB:g=original	!	!	!	!	!	!	!
=52-	=52-	=52-	=52-	=52-	=52-	=52-	=52-	=52-	=52-
2G\	pur	2r	.	.	.	.	.	2r	.
1C/	dan	1G/	dan-	1e-\	-men-	2c/	-men-	1cc\	dã-
=53-	=53-	=53-	=53-	=53-	=53-	=53-	=53-	=53-	=53-
.	.	.	.	.	.	2G/	-to	.	.
1GG/	n'et	1B-\	-n' et	2d\	-to	2g\	dan-	1b-\	-ne e-
=54-	=54-	=54-	=54-	=54-	=54-	=54-	=54-	=54-	=54-
.	.	.	.	2r	.	2d\	-no e	.	.
*	*	*	*	*	*ij	*	*	*	*
2AA/	tor-	2c\	tor-	1c\	dan	2.f\	tor	1a\	-tor-
=55-	=55-	=55-	=55-	=55-	=55-	=55-	=55-	=55-	=55-
2.BB-/	-men-	1d	-me-	.	.	.	.	.	.
.	.	.	.	.	.	4e-\	.	.	.
!	!	!	!	!	!	!	!	!LO:SIC:v:t=custos f	!
.	.	.	.	1B-\	n'et	4d\	.	1g\	-mẽ-
4C/	.	.	.	.	.	4c/	.	.	.
!	!	!	!	!	!	!	!	!LO:LB:g=original	!
=56-	=56-	=56-	=56-	=56-	=56-	=56-	=56-	=56-	=56-
!	!	!	!	!	!	!	!	!	!
0.D	.	2d\	-to	.	.	4B-/	.	.	.
.	.	.	.	.	.	4c/	.	.	.
*	*	*	*ij	*	*	*	*	*	*
.	.	2D/	dan-	1A\	tor	2.d\	.	4f/	.
.	.	.	.	.	.	.	.	4e-/	.
=57-	=57-	=57-	=57-	=57-	=57-	=57-	=57-	=57-	=57-
.	.	2F#X/	-n' et	.	.	.	.	0d	.
.	.	.	.	.	.	4c/	.	.	.
.	.	2G/	tor-	1G/	men-	2B-/	.	.	.
=58-	=58-	=58-	=58-	=58-	=58-	=58-	=58-	=58-	=58-
.	.	1A	-me-	.	.	1A	men-	.	.
.	.	.	.	2F#X/	-to	.	.	.	.
*	*	*	*	*	*Xij	*	*	*	*
=59-	=59-	=59-	=59-	=59-	=59-	=59-	=59-	=59-	=59-
!	!	!LO:N:acc=#	!	!	!	!LO:SIC:v:t=custos d	!	!	!
0GG	-to	1Bn	-to	2r	.	1G	-to	0d	to
.	.	.	.	1G/	Pian	.	.	.	.
!	!	!	!	!	!	!LO:LB:g=original	!	!	!
*	*	*	*Xij	*	*	*	*	*	*
=60-	=60-	=60-	=60-	=60-	=60-	=60-	=60-	=60-	=60-
.	.	2r	.	.	.	2r	.	.	.
.	.	1B-y\	Pian-	2G/	go-	1d\	Pian-	.	.
=61-	=61-	=61-	=61-	=61-	=61-	=61-	=61-	=61-	=61-
0r	.	.	.	0F#X	-ne	.	.	2r	.
.	.	2A/	-go-	.	.	2d\	-go-	1a\	Pian-
=62-	=62-	=62-	=62-	=62-	=62-	=62-	=62-	=62-	=62-
.	.	2A/	-ne	.	.	1d	-ne	.	.
.	.	1d\	tri-	.	.	.	.	2a\	-go-
=63-	=63-	=63-	=63-	=63-	=63-	=63-	=63-	=63-	=63-
1.AA	Pian-	.	.	1A	tri-	1f	tri-	0a	-ne
.	.	4c#X\	.	.	.	.	.	.	.
!	!	!LO:N:acc=#	!	!	!	!	!	!	!
.	.	4Bn\	.	.	.	.	.	.	.
=64-	=64-	=64-	=64-	=64-	=64-	=64-	=64-	=64-	=64-
!	!	!	!	!	!	!LO:N:acc=#	!	!	!
.	.	1c#X	.	2A/	ſto	1en	ſto	.	.
*	*	*	*	*	*ij	*	*	*	*
2AA/	-go-	.	.	1A/	Pian-	.	.	.	.
=65-	=65-	=65-	=65-	=65-	=65-	=65-	=65-	=65-	=65-
*	*	*	*	*	*	*	*ij	*	*
0D	-ne	1d	-ſto	.	.	2f\	Pian-	1b-	tri-
.	.	.	.	2G/	-go-	2d\	-go-	.	.
=66-	=66-	=66-	=66-	=66-	=66-	=66-	=66-	=66-	=66-
*	*	*	*ij	*	*	*	*	*	*
.	.	1.D	Pian-	1F#X	-ne	1d	-ne	1a	-ſto
=67-	=67-	=67-	=67-	=67-	=67-	=67-	=67-	=67-	=67-
!LO:N:acc=#	!	!	!	!	!	!	!	!	!
*	*	*	*	*lig	*	*	*	*	*
1BBn	tri-	.	.	1G-X	tri-	1d	tri-	0r	.
.	.	2D/	-go-	.	.	.	.	.	.
=68-	=68-	=68-	=68-	=68-	=68-	=68-	=68-	=68-	=68-
!	!	!LO:SIC:v:t=custos F	!	!	!	!	!	!	!
!	!	!LO:N:acc=#	!	!	!	!	!	!	!
0C	-ſto	2En/	-ne	1A	.	1c	ſto	.	.
!	!	!LO:LB:g=original	!	!	!	!	!	!	!
.	.	1Fny/	tri-	.	.	.	.	.	.
*	*	*	*	*Xlig	*	*	*Xij	*	*
=69-	=69-	=69-	=69-	=69-	=69-	=69-	=69-	=69-	=69-
.	.	.	.	1Gny	ſto	2r	.	2r	.
!	!	!LO:N:acc=#	!	!	!	!	!	!	!
.	.	2En/	-ſto	.	.	2c/	e	2cc\	e
*	*	*	*Xij	*	*Xij	*	*	*	*
=70-	=70-	=70-	=70-	=70-	=70-	=70-	=70-	=70-	=70-
1r	.	1r	.	1r	.	2e-y\	gl'o-	2cc\	gl'p-
.	.	.	.	.	.	2d\	-cch'a	2b-\	-cchi
=71-	=71-	=71-	=71-	=71-	=71-	=71-	=71-	=71-	=71-
0r	.	2r	.	2r	.	4c/	fer-	4a\	fer-
.	.	.	.	.	.	4B-/	-mo	4g/	-mo
.	.	2cny\	Ri-	4r	.	2A/	ſe-	2f#X/	ſe-
.	.	.	.	4c\	Ri-	.	.	.	.
=72-	=72-	=72-	=72-	=72-	=72-	=72-	=72-	=72-	=72-
.	.	4c\	-uol-	4e-\	-uol-	1G	-gno	0g	-gno
!	!	!LO:N:acc=#	!	!	!	!	!	!	!
.	.	8Bn\	.	8d\	.	.	.	.	.
.	.	8A\	.	8c\	.	.	.	.	.
!	!	!LO:N:acc=#	!	!	!	!	!	!	!
.	.	2Bn\	.	2d\	.	.	.	.	.
=73-	=73-	=73-	=73-	=73-	=73-	=73-	=73-	=73-	=73-
2r	.	1c	-go	1e-	-go	2r	.	.	.
*	*	*	*	*	*	*	*ij	*	*
2C/	et	.	.	.	.	2c/	e	.	.
=74-	=74-	=74-	=74-	=74-	=74-	=74-	=74-	=74-	=74-
2E-\	gl'o-	1r	.	1r	.	2c/	gl'o-	1r	.
2D/	-cch'a	.	.	.	.	2B-/	-cch'a	.	.
=75-	=75-	=75-	=75-	=75-	=75-	=75-	=75-	=75-	=75-
4C/	ſer-	2r	.	0r	.	4A/	fer-	2r	.
!LO:SIC:v:t=custos AA	!	!	!	!	!	!	!	!	!
4BB-y/	-mo	.	.	.	.	4G/	-mo	.	.
!LO:LB:g=original	!	!	!	!	!	!LO:SIC:v:t=custos F-	!	!	!
*	*	*	*	*	*	*	*	*	*ij
2AA/	ſe-	2c\	et	.	.	2F#X/	ſe-	2cc\	e
!	!	!	!	!	!	!LO:LB:g=original	!	!	!
=76-	=76-	=76-	=76-	=76-	=76-	=76-	=76-	=76-	=76-
1GG	-gno	2e-\	gl'o-	.	.	1G	-gno	2cc\	gl'o-
.	.	2d\	-cchia	.	.	.	.	2b-\	-cchi
*	*	*	*	*	*ij	*	*Xij	*	*
=77-	=77-	=77-	=77-	=77-	=77-	=77-	=77-	=77-	=77-
0r	.	4c\	ſer-	2r	.	2r	.	4a\	fer-
.	.	4B-y\	-mo	.	.	.	.	4g/	-mo
.	.	2A/	ſeg-	2c\	Ri-	4r	.	2f#X/	ſe-
.	.	.	.	.	.	4c/	Ri-	.	.
=78-	=78-	=78-	=78-	=78-	=78-	=78-	=78-	=78-	=78-
!	!	!	!	!	!	!	!	!LO:SIC:v:t=custos g	!
.	.	1G	-no	4e-\	-uol-	4c/	-uol-	2g/	-gno
.	.	.	.	8d\	.	8B-/	.	.	.
.	.	.	.	8c\	.	8A/	.	.	.
!	!	!	!	!	!	!LO:N:acc=#	!	!LO:LB:g=original	!
.	.	.	.	2d\	.	2Bn/	.	4r	.
*	*	*	*	*	*	*	*	*	*Xij
.	.	.	.	.	.	.	.	4g/	Ri-
=79-	=79-	=79-	=79-	=79-	=79-	=79-	=79-	=79-	=79-
2r	.	2r	.	1e-	-go	1c	-go	4a-X\	-vol-
.	.	.	.	.	.	.	.	8g/	.
.	.	.	.	.	.	.	.	8fny/	.
2C/	Ri-	2c\	Ri-	.	.	.	.	2g/	.
*	*	*	*	*	*Xij	*	*	*	*
=80-	=80-	=80-	=80-	=80-	=80-	=80-	=80-	=80-	=80-
4E-\	-uol-	4c\	-uol-	2r	.	1r	.	2g/	-go
!	!	!LO:N:acc=#	!	!	!	!	!	!	!
8D/	.	8Bn\	.	.	.	.	.	.	.
!	!	!LO:SIC:v:t=custos B	!	!	!	!	!	!	!
8C/	.	8A\	.	.	.	.	.	.	.
!	!	!LO:LB:g=original	!	!	!	!	!	!	!
!	!	!LO:N:acc=#	!	!	!	!	!	!	!
2D/	.	2Bn\	.	2Fny/	Ri-	.	.	4r	.
*	*	*	*	*	*	*	*	*	*ij
.	.	.	.	.	.	.	.	4f/	Ri-
=81-	=81-	=81-	=81-	=81-	=81-	=81-	=81-	=81-	=81-
1C	-g' et	1c	g' et	4A-X/	-uol-	0r	.	4f/	-vol-
.	.	.	.	8G/	.	.	.	8e-/	.
!	!	!	!	!LO:SIC:v:t=custos G	!	!	!	!	!
.	.	.	.	8F/	.	.	.	8d/	.
!	!	!	!	!LO:LB:g=original	!	!	!	!LO:N:acc=#	!
.	.	.	.	2G/	.	.	.	2en/	.
=82-	=82-	=82-	=82-	=82-	=82-	=82-	=82-	=82-	=82-
!	!	!	!	!	!	!	!	!	!
2AA/	apr'	2c\	apr'	0F	-go	.	.	1f	-go
2BB-/	il	2d\	il	.	.	.	.	.	.
*	*	*	*	*	*	*	*	*	*Xij
=83-	=83-	=83-	=83-	=83-	=83-	=83-	=83-	=83-	=83-
4FF/	ſe-	1c	ſe-	.	.	2r	.	2r	.
4GG/	-no a	.	.	.	.	.	.	.	.
4AA/	mi-	.	.	.	.	2c/	et	2cc\	et
4BB-/	-glior	.	.	.	.	.	.	.	.
=84-	=84-	=84-	=84-	=84-	=84-	=84-	=84-	=84-	=84-
2C/	ven-	1G	-no	1r	.	2e-\	apr'il	2cc\	apr'-
2GG/	-to	.	.	.	.	2d\	ſe-	2b-\	-il
=85-	=85-	=85-	=85-	=85-	=85-	=85-	=85-	=85-	=85-
0r	.	2r	.	1c	et	4g\	-no	4e-y/	ſe-
.	.	.	.	.	.	4f\	a	4f/	-no
.	.	2c\	et	.	.	4e-\	mi-	4g/	a
.	.	.	.	.	.	4d\	-glior	4g/	mi-
=86-	=86-	=86-	=86-	=86-	=86-	=86-	=86-	=86-	=86-
.	.	2c\	apr'	2Any/	apr'	2c/	vẽ-	2.f/	-glior
.	.	2d\	il	2B-\	il	2f\	-to	.	.
.	.	.	.	.	.	.	.	4g/	vẽ-
=87-	=87-	=87-	=87-	=87-	=87-	=87-	=87-	=87-	=87-
1r	.	4c\	ſe-	4F/	ſe-	1r	.	1any	.
.	.	4B-y\	-no a	4G/	-gno	.	.	.	.
.	.	4c\	mi-	4A/	a mi-	.	.	.	.
.	.	4d\	-glior	4B-\	-glior	.	.	.	.
=88-	=88-	=88-	=88-	=88-	=88-	=88-	=88-	=88-	=88-
!	!	!LO:N:acc=#	!	!	!	!	!	!	!
1C	Di	4en\	ven-	2c\	uen-	2r	.	1g	-to
.	.	2f\	.	.	.	.	.	.	.
.	.	.	.	2C/	-to	2c/	Di	.	.
!	!	!LO:N:acc=#	!	!	!	!	!	!	!
.	.	4en\	.	.	.	.	.	.	.
=89-	=89-	=89-	=89-	=89-	=89-	=89-	=89-	=89-	=89-
!LO:SIC:v:t=custos BB-	!	!	!	!	!	!LO:SIC:v:t=custos d	!	!	!
2AA/	me	1f	-to	2r	.	2c/	me	2r	.
!LO:LB:g=original	!	!	!	!	!	!LO:LB:g=original	!	!	!
2BB-/	mi	.	.	2F/	Di	2d\	mi	2f/	Di
=90-	=90-	=90-	=90-	=90-	=90-	=90-	=90-	=90-	=90-
1C	do-	2r	.	2A-/	me	1c	do-	2f/	me
!	!	!	!	!	!	!	!	!LO:SIC:v:t=custos d	!
.	.	2c\	Di	2G/	mi	.	.	2e-/	mi
!	!	!	!	!	!	!	!	!LO:LB:g=original	!
=91-	=91-	=91-	=91-	=91-	=91-	=91-	=91-	=91-	=91-
!	!	!LO:SIC:v:t=custos A	!	!	!	!	!	!	!
1D	-glio	2B-\	me	1F	do-	1f	-glio	2d/	do-
!	!	!LO:LB:g=original	!	!	!	!	!	!	!
.	.	2A/	mi	.	.	.	.	2a\	-glio
=92-	=92-	=92-	=92-	=92-	=92-	=92-	=92-	=92-	=92-
2r	.	1G	do-	1E-	-glio	2r	.	2r	.
*	*ij	*	*	*	*	*	*	*	*
2G\	Di	.	.	.	.	2B-y/	Di	2g/	Di
=93-	=93-	=93-	=93-	=93-	=93-	=93-	=93-	=93-	=93-
2B-\	me	1D	-glio	2r	.	2d\	me	2g/	me
2A\	mi	.	.	4r	.	2c/	mi	2f/	mi
.	.	.	.	4Any/	e'n-	.	.	.	.
=94-	=94-	=94-	=94-	=94-	=94-	=94-	=94-	=94-	=94-
1G	do-	1r	.	4.d\	-con-	2.B-/	do-	1.b-	dogli'-
!	!	!	!	!LO:SIC:v:t=custos d	!	!	!	!	!
.	.	.	.	8c\	-tr'a-	.	.	.	.
!	!	!	!	!LO:LB:g=original	!	!	!	!	!
.	.	.	.	4d\	-mor	.	.	.	.
.	.	.	.	4e-\	mi	4c/	.	.	.
=95-	=95-	=95-	=95-	=95-	=95-	=95-	=95-	=95-	=95-
1F	-glio	2r	.	2f\	ſde-	2d\	-glio	.	.
.	.	4r	.	2f\	-gno	2c/	e'n	2a\	e'n
.	.	4c\	e'n	.	.	.	.	.	.
*	*Xij	*	*	*	*	*	*	*	*
=96-	=96-	=96-	=96-	=96-	=96-	=96-	=96-	=96-	=96-
1r	.	4.B-\	con-	2r	.	4.d\	contr'	4.b-\	contr'
.	.	8c\	-tr'a-	.	.	8e-\	A-	8a\	A-
.	.	4B-\	-mor	4r	.	4d\	-mor	4g/	-mor
*	*	*	*	*	*ij	*	*	*	*
.	.	4A/	mi	4c\	e'n-	4c/	mi	4f/	mi
=97-	=97-	=97-	=97-	=97-	=97-	=97-	=97-	=97-	=97-
!	!	!	!	!	!	!LO:N:acc=#	!	!	!
00r	.	2G/	ſde-	4.d\	-con-	2Bn/	ſde-	2g/	ſte-
.	.	.	.	8c\	-tr'a-	.	.	.	.
.	.	4G/	-gno	4d\	-mor	4B/	-gno	4g/	-gno
*	*	*	*ij	*	*	*	*	*	*
.	.	4c\	e'n	4e-\	mi	4c/	e'n	4a\	E'n
=98-	=98-	=98-	=98-	=98-	=98-	=98-	=98-	=98-	=98-
.	.	4.B-\	con-	4f\	ſde-	4.d\	cõtr'	4.b-\	contr'
.	.	.	.	4f\	-gno	.	.	.	.
.	.	8c\	-tr'a-	.	.	8e-\	A-	8a\	A-
.	.	4B-\	-mor	4r	.	4d\	-mor	4g/	-mor
!	!	!	!	!	!	!LO:SIC:v:t=custos B-	!	!LO:SIC:v:t=custos g	!
*	*	*	*	*	*	*	*	*	*
.	.	4A/	mi	4c\	e'n-	4c/	mi	4f/	mi
!	!	!	!	!	!	!LO:PB:g=original	!	!LO:LB:g=original	!
=99-	=99-	=99-	=99-	=99-	=99-	=99-	=99-	=99-	=99-
!	!	!	!	!	!	!LO:TX:a:t=Seconda parte.	!	!	!
.	.	1G	ſde-	4.d\	-con-	1B-y	ſde-	8g\	sde-
.	.	.	.	.	.	.	.	8f/	.
.	.	.	.	.	.	.	.	8g\	.
.	.	.	.	8c\	-tr'a-	.	.	8a\	.
.	.	.	.	4d\	-mor	.	.	1b-\	.
.	.	.	.	4e-\	mi	.	.	.	.
=100-	=100-	=100-	=100-	=100-	=100-	=100-	=100-	=100-	=100-
.	.	0F	-gno	2f\	ſde-	1c	-gno	.	.
.	.	.	.	2c\	-gno	.	.	2a\	-gno
*	*	*	*Xij	*	*Xij	*	*	*	*
=101-	=101-	=101-	=101-	=101-	=101-	=101-	=101-	=101-	=101-
1BB-	Per	.	.	2r	.	2r	.	2r	.
.	.	.	.	2B-\	Per	2f\	Per	2d/	Per-
=102-	=102-	=102-	=102-	=102-	=102-	=102-	=102-	=102-	=102-
2BB-/	cui'l	1r	.	2B-\	cui'l	2f\	cui'l	2d/	-cui'l
2C/	lum'	.	.	2G/	mio	2c/	mio	2e-/	mio
=103-	=103-	=103-	=103-	=103-	=103-	=103-	=103-	=103-	=103-
2D/	in	2r	.	1d	lu-	2A/	lu-	2f/	lum'
1G\	tut-	2B-\	Per	.	.	4B-/	-me	1b-\	in
.	.	.	.	.	.	4c/	.	.	.
=104-	=104-	=104-	=104-	=104-	=104-	=104-	=104-	=104-	=104-
.	.	2B-\	cui'l	2G/	-me	4d\	.	.	.
.	.	.	.	.	.	4e-\	.	.	.
!	!	!LO:SIC:v:t=custos d	!	!	!	!	!	!	!
2F\	-to	2c\	mio	2r	.	2f\	.	2a\	tut-
!	!	!LO:PB:g=original	!	!	!	!	!	!	!
=105-	=105-	=105-	=105-	=105-	=105-	=105-	=105-	=105-	=105-
!	!	!LO:TX:a:t=Seconda parte.	!	!	!	!	!	!	!
2D/	e	4d\	lu-	2r	.	2r	.	2f/	-to
.	.	4c\	.	.	.	.	.	.	.
!	!	!	!	!LO:SIC:v:t=custos G	!	!	!	!	!
1E-\	qua-	4B-\	.	2G/	per	1g\	in	1b-\	e qua-
.	.	4G/	.	.	.	.	.	.	.
!	!	!	!	!LO:PB:g=original	!	!	!	!	!
=106-	=106-	=106-	=106-	=106-	=106-	=106-	=106-	=106-	=106-
!	!	!	!	!LO:TX:a:t=Seconda parte.	!	!	!	!	!
.	.	1c	.	2G/	cui'l	.	.	.	.
!LO:SIC:v:t=custos G	!	!	!	!	!	!	!	!	!
2F\	-ſi	.	.	2A/	mio	2f\	tut-	2a\	-ſi
!LO:LB:g=original	!	!	!	!	!	!	!	!	!
=107-	=107-	=107-	=107-	=107-	=107-	=107-	=107-	=107-	=107-
1.G	ſpen-	2.B-\	.	2B-\	lum'	1d	-to e	1.g	ſpe-
.	.	.	.	1d\	in	.	.	.	.
.	.	4A/	.	.	.	.	.	.	.
=108-	=108-	=108-	=108-	=108-	=108-	=108-	=108-	=108-	=108-
!	!	!	!	!	!	!LO:N:acc=#	!	!	!
.	.	1G	-me	.	.	2Bn/	gua-	.	.
!	!	!	!	!	!	!	!	!LO:N:acc=#	!
2C/	-to	.	.	2c\	tut' 	1c\	-ſi	2en/	-nte
=109-	=109-	=109-	=109-	=109-	=109-	=109-	=109-	=109-	=109-
0r	.	0r	.	2A/	e	.	.	2r	.
.	.	.	.	1B-\	qua-	2d\	ſpe-	1dd\	in
=110-	=110-	=110-	=110-	=110-	=110-	=110-	=110-	=110-	=110-
!	!	!	!	!	!	!LO:SIC:v:t=custos g	!	!	!
.	.	.	.	.	.	2G/	-nto	.	.
!	!	!	!	!	!	!LO:LB:g=original	!	!LO:SIC:v:t=custos a	!
*	*	*	*	*	*	*	*ij	*	*
.	.	.	.	2c\	-ſi	1g\	in	2cc\	tut-
!	!	!	!	!	!	!	!	!LO:PB:g=original	!
=111-	=111-	=111-	=111-	=111-	=111-	=111-	=111-	=111-	=111-
!	!	!	!	!	!	!	!	!LO:TX:a:t=Seconda parte.	!
2r	.	2r	.	1d	ſpe-	.	.	1a	-to
2D/	per	1d\	in	.	.	2f\	tut-	.	.
=112-	=112-	=112-	=112-	=112-	=112-	=112-	=112-	=112-	=112-
2D/	cui'l	.	.	2A/	-nto	2d\	-to e	2f/	qua-
2E-\	mio	2c\	tut-	2r	.	2G/	qua-	2g/	-ſi
=113-	=113-	=113-	=113-	=113-	=113-	=113-	=113-	=113-	=113-
1F	lu-	2A/	-t'e	1r	.	1c	-ſi	1a	ſpe-
.	.	1F/	qua-	.	.	.	.	.	.
=114-	=114-	=114-	=114-	=114-	=114-	=114-	=114-	=114-	=114-
1BB-	-me	.	.	2r	.	1f	ſpen-	1d	-nto
.	.	2G/	ſi	1d\	in	.	.	.	.
=115-	=115-	=115-	=115-	=115-	=115-	=115-	=115-	=115-	=115-
!	!	!	!	!	!	!LO:N:acc=#	!	!	!
1r	.	1A	ſpen-	.	.	1en	-to	2r	.
.	.	.	.	2c\	tutt'	.	.	1a\	Per
*	*	*	*	*	*	*	*Xij	*	*
=116-	=116-	=116-	=116-	=116-	=116-	=116-	=116-	=116-	=116-
2r	.	1D	-to	2A/	e	2r	.	.	.
1D\	in	.	.	1F/	qua-	1f\	in	2a\	cui'l
=117-	=117-	=117-	=117-	=117-	=117-	=117-	=117-	=117-	=117-
!	!	!	!	!	!	!	!	!LO:N:acc=#	!
.	.	1r	.	.	.	.	.	2bn\	mio
!	!	!	!	!	!	!LO:N:acc=#	!	!	!
2C/	tut-	.	.	2G/	-ſi	2en\	tut-	1cc\	lum-
=118-	=118-	=118-	=118-	=118-	=118-	=118-	=118-	=118-	=118-
2AA/	-t'e	2r	.	2A/	ſpen-	1f	-to e	.	.
1BB-/	qua-	1d\	in	2D/	-to	.	.	2dd\	-in
=119-	=119-	=119-	=119-	=119-	=119-	=119-	=119-	=119-	=119-
.	.	.	.	1r	.	2f\	qua-	2b-y\	tut-
2C/	-ſi	2c\	tut-	.	.	2e-y\	-ſi	2g/	-to
=120-	=120-	=120-	=120-	=120-	=120-	=120-	=120-	=120-	=120-
0.D	ſpen-	2A/	-t'e	2.F/	qua-	0.d	ſpen-	2f/	e qua -
.	.	1F/	qua-	.	.	.	.	1a\	-ſi
.	.	.	.	4G/	.	.	.	.	.
=121-	=121-	=121-	=121-	=121-	=121-	=121-	=121-	=121-	=121-
.	.	.	.	2A/	.	.	.	.	.
.	.	2G/	-ſi	2B-\	-ſi	.	.	2.g/	-ſpen-
=122-	=122-	=122-	=122-	=122-	=122-	=122-	=122-	=122-	=122-
.	.	1A	ſpen-	1A	ſpen-	.	.	.	.
.	.	.	.	.	.	.	.	8f#X/	.
!	!	!	!	!	!	!	!	!LO:N:acc=#	!
.	.	.	.	.	.	.	.	8en/	.
.	.	.	.	.	.	.	.	2f#X/	.
=123-	=123-	=123-	=123-	=123-	=123-	=123-	=123-	=123-	=123-
!	!	!	!	!LO:N:acc=#	!	!	!	!	!
00GG	-to.	00G	-to.	00Bn	-to	00d	-to.	00g/	-to.
!LO:PB:g=original	!	!	!	!	!	!	!	!	!
=124||	=124||	=124||	=124||	=124||	=124||	=124||	=124||	=124||	=124||
*clefF4	*	*clefC4	*	*clefC4	*	*clefC3	*	*clefC1	*
*k[b-e-]	*	*k[b-e-]	*	*k[b-e-]	*	*k[b-e-]	*	*k[b-e-]	*
*M2/2	*	*M2/2	*	*M2/2	*	*M2/2	*	*M2/2	*
*met(C|)	*	*met(C|)	*	*met(C|)	*	*met(C|)	*	*met(C|)	*
!LO:TX:a:t=Seconda parte.	!	!LO:TX:t=P:problem:podwójnie zapisany znak przykluczowy, kolejno: E- B- e-	!	!LO:TX:t=P:problem:podwójnie zapisany znak przykluczowy, kolejno: E- B- e-	!LO:TX:t=P:problem:podwójnie zapisany znak przykluczowy, kolejno: B- e- b-	!	!	!LO:TX:t=P:problem:podwójnie zapisany znak przykluczowy, kolejno: B- e- b-	!
!LO:TX:t=P:problem:podwójnie zapisany znak przykluczowy, kolejno: BB- E- B-	!	!	!	!	!	!	!	!	!
1r	.	0r	.	2.G/	O	2r	.	0r	.
.	.	.	.	.	.	1d\	O	.	.
.	.	.	.	4A/	.	.	.	.	.
=125-	=125-	=125-	=125-	=125-	=125-	=125-	=125-	=125-	=125-
0G	O	.	.	2B-\	.	.	.	.	.
.	.	.	.	1c\	Fe-	1e-\	Fe-	.	.
=126-	=126-	=126-	=126-	=126-	=126-	=126-	=126-	=126-	=126-
.	.	2.G/	O	.	.	.	.	2r	.
.	.	.	.	2B-\	-ra	2d\	-ra	1g\	O
.	.	4A/	.	.	.	.	.	.	.
=127-	=127-	=127-	=127-	=127-	=127-	=127-	=127-	=127-	=127-
0E-	Fe-	2B-\	.	1e-	vo-	4g\	vo-	.	.
.	.	.	.	.	.	4f\	.	.	.
.	.	1c\	Fe-	.	.	4e-\	.	1a-X\	Fe-
.	.	.	.	.	.	4d\	.	.	.
=128-	=128-	=128-	=128-	=128-	=128-	=128-	=128-	=128-	=128-
.	.	.	.	1e-	glia	4c\	.	.	.
.	.	.	.	.	.	4d\	.	.	.
.	.	2B-\	-ra	.	.	2e-\	.	2g/	-ra
=129-	=129-	=129-	=129-	=129-	=129-	=129-	=129-	=129-	=129-
*	*	*lig	*	*	*	*	*	*	*
1BB-	-ra	1B-	vo-	1r	.	2d\	glia	2f/	vo-
*	*	*	*	*	*ij	*	*ij	*	*
.	.	.	.	.	.	1g\	o	2d/	-glia
=130-	=130-	=130-	=130-	=130-	=130-	=130-	=130-	=130-	=130-
1D	vo-	1A	.	2.d\	o	.	.	2r	.
.	.	.	.	.	.	1f\	Fe-	1dd\	O
.	.	.	.	4c\	.	.	.	.	.
*	*	*Xlig	*	*	*	*	*	*	*
=131-	=131-	=131-	=131-	=131-	=131-	=131-	=131-	=131-	=131-
!	!	!	!	!LO:N:acc=#	!	!	!	!	!
0GG	-glia	0G	glia	2Bn\	.	.	.	.	.
.	.	.	.	1c\	Fe-	2e-\	-ra	1ee-\	fe-
=132-	=132-	=132-	=132-	=132-	=132-	=132-	=132-	=132-	=132-
.	.	.	.	.	.	1g	vo-	.	.
.	.	.	.	2B-\	-ra	.	.	2dd\	-ra
=133-	=133-	=133-	=133-	=133-	=133-	=133-	=133-	=133-	=133-
1r	.	2r	.	1A	vo-	2c/	-glia	1cc	vo-
*	*	*	*	*	*	*	*Xij	*	*
.	.	4c\	che-	.	.	4e-\	che-	.	.
.	.	4d\	-ne	.	.	4f\	-ne	.	.
=134-	=134-	=134-	=134-	=134-	=134-	=134-	=134-	=134-	=134-
1r	.	4e-\	ro-	2E-/	-glia	4g\	ro-	1b-	-glia
.	.	8d\	.	.	.	8f\	.	.	.
!	!	!	!	!	!	!LO:SIC:v:t=custos f	!	!	!
.	.	8c\	.	.	.	8e-\	.	.	.
!	!	!	!	!	!	!LO:LB:g=original	!	!	!
.	.	4d\	.	2r	.	4f\	.	.	.
.	.	4e-\	di	.	.	4g\	di	.	.
*	*	*	*	*	*Xij	*	*	*	*
=135-	=135-	=135-	=135-	=135-	=135-	=135-	=135-	=135-	=135-
4C/	che-	2c\	e pa-	1r	.	2g\	e pa-	4e-/	che-
4D/	-ne	.	.	.	.	.	.	4f/	-ne
!	!	!LO:SIC:v:t=custos E-	!	!	!	!	!	!	!
4E-\	ro-	1B-\	-ſci	.	.	2e-\	-ſci	4g/	no-
8D/	.	.	.	.	.	.	.	8f/	.
!	!	!	!	!	!	!	!	!LO:SIC:v:t=custos f	!
8C/	.	.	.	.	.	.	.	8e-/	.
!	!	!LO:LB:g=original	!	!	!	!	!	!LO:LB:g=original	!
=136-	=136-	=136-	=136-	=136-	=136-	=136-	=136-	=136-	=136-
!	!	!	!	!	!	!	!	!	!
4D/	.	.	.	2r	.	0r	.	4f/	.
!LO:SIC:v:t=custos C	!	!	!	!	!	!	!	!	!
4E-\	-di e	.	.	.	.	.	.	4g/	di
*	*	*	*ij	*	*	*	*	*	*
!LO:LB:g=original	!	!	!	!	!	!	!	!	!
2C/	pa-	4E-/	che-	4G/	che-	.	.	2e-/	et
!	!	!	!	!LO:SIC:v:t=custos B-	!	!	!	!	!
.	.	4F/	-ne	4A/	-ne	.	.	.	.
!	!	!	!	!LO:LB:g=original	!	!	!	!	!
=137-	=137-	=137-	=137-	=137-	=137-	=137-	=137-	=137-	=137-
2BB-/	ſci	4G/	ro-	4B-\	ro-	.	.	1d	paſci
.	.	8F/	.	8A/	.	.	.	.	.
.	.	8E-/	.	8G/	.	.	.	.	.
2r	.	4F/	.	4A/	.	.	.	.	.
.	.	4G/	di	4B-\	di	.	.	.	.
=138-	=138-	=138-	=138-	=138-	=138-	=138-	=138-	=138-	=138-
4G\	che-	2E-/	e pa-	2G/	e pa-	2r	.	4b-\	che-
4A\	-ne	.	.	.	.	.	.	4cc\	-ne-
4B-\	ro-	2D/	-ſci	2F/	-ſci	2f\	et	4dd\	-ro-
8A\	.	.	.	.	.	.	.	8cc\	.
8G\	.	.	.	.	.	.	.	8b-\	.
*	*	*	*Xij	*	*	*	*	*	*
=139-	=139-	=139-	=139-	=139-	=139-	=139-	=139-	=139-	=139-
4A\	.	1r	.	2r	.	2f\	ſug-	4cc\	.
4B-\	-di e	.	.	.	.	.	.	4dd\	-di
!	!	!	!	!	!	!LO:N:acc=#	!	!	!
2G\	pa-	.	.	2B-\	et	2en\	g'il	4.b-\	e pa-
.	.	.	.	.	.	.	.	8cc\	.
=140-	=140-	=140-	=140-	=140-	=140-	=140-	=140-	=140-	=140-
1F	-ſci	2r	.	2B-\	ſug-	2f\	cor	2dd\	.
.	.	2F/	quas'	2A/	g'il	2c/	qua's	4cc\	-ſci
.	.	.	.	.	.	.	.	4f/	e
=141-	=141-	=141-	=141-	=141-	=141-	=141-	=141-	=141-	=141-
1r	.	2D/	af-	1B-	cor	2d\	af-	2f/	ſe-
!	!	!	!	!	!	!	!	!LO:N:acc=#	!
.	.	2G/	-fa-	.	.	2B-/	-fa-	2en/	-gu'il
=142-	=142-	=142-	=142-	=142-	=142-	=142-	=142-	=142-	=142-
1r	.	2F/	-ma-	2r	.	2c/	-mo-	2f/	lor
!	!	!LO:N:acc=#	!	!	!	!	!	!	!
*	*	*	*	*	*ij	*	*	*	*
.	.	2En/	to	2c\	et	2G/	-to	2r	.
=143-	=143-	=143-	=143-	=143-	=143-	=143-	=143-	=143-	=143-
!	!	!	!	!	!	!	!	!LO:SIC:v:t=custos a	!
2r	.	4F/	ver-	2A/	ſug-	2c\	ver-	1cc	qua-
.	.	4G/	.	.	.	.	.	.	.
2F\	et	4A/	.	1c/	g'il	2f\	-me	.	.
.	.	4B-\	.	.	.	.	.	.	.
!	!	!	!	!	!	!	!	!LO:LB:g=original	!
=144-	=144-	=144-	=144-	=144-	=144-	=144-	=144-	=144-	=144-
2F\	ſug-	2.c\	.	.	.	1r	.	2any\	-s'
!LO:N:acc=#	!	!	!	!	!	!	!	!	!
2En\	-g'il	.	.	2G/	cor	.	.	2g/	af-
.	.	4B-\	.	.	.	.	.	.	.
*	*	*	*	*	*Xij	*	*	*	*
=145-	=145-	=145-	=145-	=145-	=145-	=145-	=145-	=145-	=145-
2F\	cor	4A\	.	2r	.	1c	quas'	2f/	-fa-
.	.	8G/	.	.	.	.	.	.	.
!	!	!LO:SIC:v:t=custos G	!	!	!	!	!	!	!
.	.	8F/	.	.	.	.	.	.	.
!	!	!LO:LB:g=original	!	!	!	!	!	!LO:N:acc=#	!
2C/	quas'-	2G/	.	4r	.	.	.	2en/	-mo-
.	.	.	.	4G/	quas'	.	.	.	.
=146-	=146-	=146-	=146-	=146-	=146-	=146-	=146-	=146-	=146-
!LO:SIC:v:t=custos D	!	!	!	!	!	!	!	!	!
2AA/	-aſ-	1F	-me	2A/	af-	2c/	af-	4f/	-to
.	.	.	.	.	.	.	.	4g/	ver-
!LO:LB:g=original	!	!	!	!	!	!	!	!	!
2D/	ſa-	.	.	2F/	-fa-	2f\	-fa-	4a\	.
.	.	.	.	.	.	.	.	4b-\	.
=147-	=147-	=147-	=147-	=147-	=147-	=147-	=147-	=147-	=147-
!	!	!	!	!LO:SIC:v:t=custos G	!	!	!	!	!
2C/	-ma-	1r	.	2G/	-ma-	2e-y\	-ma-	2cc\	.
!LO:N:acc=#	!	!	!	!LO:LB:g=original	!	!LO:SIC:v:t=custos e-	!	!	!
2BBn/	-to	.	.	2G/	te	2d\	te	2dd\	-me
!	!	!	!	!	!	!LO:LB:g=original	!	!	!
=148-	=148-	=148-	=148-	=148-	=148-	=148-	=148-	=148-	=148-
4C/	ver-	2r	.	2G/	-ver-	1e-	-ver-	2r	.
4D\	.	.	.	.	.	.	.	.	.
4E-y\	.	2c\	e	2G/	-me	.	.	2g/	quas'
4F\	.	.	.	.	.	.	.	.	.
=149-	=149-	=149-	=149-	=149-	=149-	=149-	=149-	=149-	=149-
1G	.	2c\	ſug-	1r	.	1d	me	2g/	af-
!	!	!LO:N:acc=#	!	!	!	!	!	!	!
.	.	2Bn\	g'il	.	.	.	.	2d/	-fa-
=150-	=150-	=150-	=150-	=150-	=150-	=150-	=150-	=150-	=150-
00F	-me	1c	cor	2r	.	2r	.	1f	-ma-
*	*	*	*	*	*	*	*ij	*	*
.	.	.	.	2c\	quas'	2A/	quas'	.	.
=151-	=151-	=151-	=151-	=151-	=151-	=151-	=151-	=151-	=151-
.	.	1r	.	2A/	af-	2c/	af-	1f	-te
.	.	.	.	2d\	-fa-	2B-/	-fa-	.	.
=152-	=152-	=152-	=152-	=152-	=152-	=152-	=152-	=152-	=152-
.	.	0r	.	2c\	-ma-	2A/	-ma-	0f	ver-
.	.	.	.	2B-\	-to	1B-/	-te	.	.
=153-	=153-	=153-	=153-	=153-	=153-	=153-	=153-	=153-	=153-
.	.	.	.	1c	ver-	.	.	.	.
.	.	.	.	.	.	2A/	ver-	.	.
=154-	=154-	=154-	=154-	=154-	=154-	=154-	=154-	=154-	=154-
1BB-y	Ch'a-	2r	.	2d\	-me	2B-/	-me	1f	-me
*	*	*	*	*	*	*	*Xij	*	*
.	.	1B-y\	Ch'a-	1d\	Ch'a-	2f\	Ch'a-	.	.
=155-	=155-	=155-	=155-	=155-	=155-	=155-	=155-	=155-	=155-
1C	-ma-	.	.	.	.	1e-	-ma-	1r	.
.	.	1A\	-ma-	1c\	-ma-	.	.	.	.
=156-	=156-	=156-	=156-	=156-	=156-	=156-	=156-	=156-	=156-
0D	-ra	.	.	.	.	2.d\	-ra	1r	.
.	.	2G/	-ra	2B-\	-ra	.	.	.	.
.	.	.	.	.	.	8c/	.	.	.
.	.	.	.	.	.	8B-/	.	.	.
=157-	=157-	=157-	=157-	=157-	=157-	=157-	=157-	=157-	=157-
.	.	1F#X	cre-	2.d\	cre-	2A/	.	2r	.
.	.	.	.	.	.	1B-/	cre-	1dd\	Ch'a-
.	.	.	.	4c\	.	.	.	.	.
=158-	=158-	=158-	=158-	=158-	=158-	=158-	=158-	=158-	=158-
1E-	cre-	1G	ſci	2B-\	.	.	.	.	.
!	!	!	!	!	!	!	!	!LO:SIC:v:t=custos b-	!
.	.	.	.	4A/	.	2c/	.	1cc\	-ma-
.	.	.	.	4G/	.	.	.	.	.
!	!	!	!	!	!	!	!	!LO:LB:g=original	!
=159-	=159-	=159-	=159-	=159-	=159-	=159-	=159-	=159-	=159-
!	!	!	!	!	!	!	!	!	!
0D	ſci	1r	.	2F#X/	.	1d	-ſci	.	.
!	!	!	!	!LO:SIC:v:t=custos F#	!	!	!	!	!
.	.	.	.	1G/	.	.	.	2b-\	-ra
!	!	!	!	!LO:LB:g=original	!	!	!	!	!
=160-	=160-	=160-	=160-	=160-	=160-	=160-	=160-	=160-	=160-
!	!	!	!	!	!	!	!	!	!
.	.	2r	.	.	.	2r	.	1a	cre-
.	.	1A\	et	2F#X/	-ſci	2d\	et	.	.
!	!	!	!	!	!	!	!	!	!
=161-	=161-	=161-	=161-	=161-	=161-	=161-	=161-	=161-	=161-
1r	.	.	.	1r	.	2c/	pur	1f	-ſe' et
.	.	2B-\	pur	.	.	2d\	dol-	.	.
=162-	=162-	=162-	=162-	=162-	=162-	=162-	=162-	=162-	=162-
1E-	e	1B-	dol-	2r	.	2e-\	-ce	1g	pur
.	.	.	.	2E-/	e	2B-/	co-	.	.
=163-	=163-	=163-	=163-	=163-	=163-	=163-	=163-	=163-	=163-
!	!	!	!	!	!	!LO:SIC:v:t=custos c	!	!	!
2AA-/	pur	1.A-	ce	2E-/	pur	1c	-min-	1e-y	dol-
1AA-/	dol-	.	.	1E-/	dol-	.	.	.	.
!	!	!	!	!	!	!LO:LB:g=original	!	!	!
=164-	=164-	=164-	=164-	=164-	=164-	=164-	=164-	=164-	=164-
.	.	.	.	.	.	1c	-ci	2.e-/	-ce
1C/	-ce	2G/	co-	1E-/	ce	.	.	.	.
.	.	.	.	.	.	.	.	4d/	.
=165-	=165-	=165-	=165-	=165-	=165-	=165-	=165-	=165-	=165-
.	.	0G	-min-	.	.	2r	.	2c/	.
!LO:SIC:v:t=custos C	!	!	!	!	!	!	!	!	!
!LO:N:acc=#	!	!	!	!	!	!	!	!	!
2BBn/	co-	.	.	2D/	co-	1G/	co-	2d/	con-
!LO:LB:g=original	!	!	!	!	!	!	!	!	!
=166-	=166-	=166-	=166-	=166-	=166-	=166-	=166-	=166-	=166-
1C	-min-	.	.	1C	-min-	.	.	1e-	-ſu-
.	.	.	.	.	.	1c\	-min-	.	.
=167-	=167-	=167-	=167-	=167-	=167-	=167-	=167-	=167-	=167-
!	!	!LO:SIC:v:t=custos E-	!	!	!	!	!	!	!
1GG	-ci	1G	ci	1D	ci	.	.	1d	-mi
!	!	!	!	!	!	!LO:N:acc=#	!	!	!
.	.	.	.	.	.	2Bn/	-ci	.	.
!	!	!LO:LB:g=original	!	!	!	!	!	!	!
=168-	=168-	=168-	=168-	=168-	=168-	=168-	=168-	=168-	=168-
00r	.	1E-y	Di	00r	.	2r	.	2r	.
.	.	.	.	.	.	2e-\	Di	2g/	Di
=169-	=169-	=169-	=169-	=169-	=169-	=169-	=169-	=169-	=169-
.	.	1B-	che	.	.	2d\	che	2f/	che
.	.	.	.	.	.	1e-\	fal-	1g\	fal-
=170-	=170-	=170-	=170-	=170-	=170-	=170-	=170-	=170-	=170-
.	.	1B-	fal-	.	.	.	.	.	.
.	.	.	.	.	.	4d\	-ſo	4f/	-ſo
.	.	.	.	.	.	4c\	pia-	4e-/	pia-
=171-	=171-	=171-	=171-	=171-	=171-	=171-	=171-	=171-	=171-
.	.	2B-\	-ſo	.	.	4d\	-cer	4f/	-cer
.	.	.	.	.	.	4c\	cir-	4e-/	cir-
.	.	2B-\	pia-	.	.	4d\	-cõd	4f/	-cond
!	!	!	!	!	!	!	!	!LO:SIC:v:t=custos f	!
.	.	.	.	.	.	4e-\	e	4g/	et
!	!	!	!	!	!	!	!	!LO:LB:g=original	!
=172-	=172-	=172-	=172-	=172-	=172-	=172-	=172-	=172-	=172-
2r	.	1B-	-cer	2r	.	1.d	fa-	2f/	fa-
4r	.	.	.	4r	.	.	.	1f/	-ſci
4BB-y/	Le	.	.	4B-\	Le	.	.	.	.
=173-	=173-	=173-	=173-	=173-	=173-	=173-	=173-	=173-	=173-
4D/	tue	1r	.	4A\	tue	.	.	.	.
4BB-/	men-	.	.	4B-\	men-	.	.	.	.
2E-\	-zog-	.	.	2G/	-zog-	2B-y/	ſci	2r	.
=174-	=174-	=174-	=174-	=174-	=174-	=174-	=174-	=174-	=174-
2BB-/	-ne	4r	.	2Fny/	-ne	4r	.	4r	.
.	.	4B-\	Le	.	.	4d\	Le	4f/	Le
2r	.	4Any\	tue	2r	.	4c\	tue	4a\	tue
.	.	4B-\	men-	.	.	4d\	men-	4f/	men-
=175-	=175-	=175-	=175-	=175-	=175-	=175-	=175-	=175-	=175-
!	!	!	!	!	!	!LO:N:acc=#	!	!	!
1r	.	2G/	-zog-	1r	.	2en\	-zog-	2b-\	-zog-
.	.	2Fny/	-ne	.	.	2f\	-ne	4.a\	-ne
.	.	.	.	.	.	.	.	8g/	.
=176-	=176-	=176-	=176-	=176-	=176-	=176-	=176-	=176-	=176-
1BB-	Di	2r	.	2r	.	00r	.	00f	.
.	.	2d\	Di	2B-\	Di	.	.	.	.
=177-	=177-	=177-	=177-	=177-	=177-	=177-	=177-	=177-	=177-
!	!	!	!	!LO:SIC:v:t=custos B-	!	!	!	!	!
1F	che	2c\	che	2A/	che	.	.	.	.
!	!	!	!	!LO:LB:g=original	!	!	!	!	!
.	.	1d\	fal-	1B-\	fal-	.	.	.	.
=178-	=178-	=178-	=178-	=178-	=178-	=178-	=178-	=178-	=178-
1F	fal-	.	.	.	.	.	.	.	.
.	.	4c\	-ſo	4A/	-ſo	.	.	.	.
.	.	4B-\	pia-	4G/	pia-	.	.	.	.
=179-	=179-	=179-	=179-	=179-	=179-	=179-	=179-	=179-	=179-
2F\	-fo	4c\	-cer	4A/	-cer	.	.	.	.
.	.	4B-\	cir-	4G/	cir-	.	.	.	.
2F\	pia-	4c\	-cod'	4A/	-cod'	.	.	.	.
!	!	!LO:SIC:v:t=custos c	!	!	!	!	!	!	!
.	.	4d\	e	4B-\	e	.	.	.	.
!	!	!LO:LB:g=original	!	!	!	!	!	!	!
=180-	=180-	=180-	=180-	=180-	=180-	=180-	=180-	=180-	=180-
4F\	-cer	2c\	fa-	4A/	fa-	1r	.	4r	.
4E-\	cir-	.	.	4G/	ſci	.	.	4g/	cir-
4F\	-con-	4c\	ſci	4r	.	.	.	4f/	-cond-
!LO:SIC:v:t=custos F	!	!	!	!	!	!	!	!	!
4G\	-d'e	4B-\	cir-	4G/	cir-	.	.	4d/	-et
!LO:LB:g=original	!	!	!	!	!	!	!	!	!
=181-	=181-	=181-	=181-	=181-	=181-	=181-	=181-	=181-	=181-
1F	fa-	4c\	-con-	4A/	-con-	2r	.	1f	fa-
.	.	4d\	-di e	4B-\	-die	.	.	.	.
.	.	2c\	fa-	2F/	fa-	4r	.	.	.
!	!	!	!	!	!	!LO:SIC:v:t=custos A-	!	!	!
.	.	.	.	.	.	4F/	Le	.	.
!	!	!	!	!	!	!LO:LB:g=original	!	!	!
=182-	=182-	=182-	=182-	=182-	=182-	=182-	=182-	=182-	=182-
2F\	-fci	2c\	ſci	2F/	ſci	4A/	tue	1f	-ſci
.	.	.	.	.	.	4F/	mẽ(n)-	.	.
4r	.	4r	.	4r	.	2B-/	-zog-	.	.
4BB-/	Le	4B-\	Le	4d\	Le	.	.	.	.
=183-	=183-	=183-	=183-	=183-	=183-	=183-	=183-	=183-	=183-
4D/	tue	4A\	tue	4d\	tue	2F/	-ne	2r	.
!	!	!	!	!LO:SIC:v:t=custos c	!	!	!	!	!
4BB-/	me-	4B-\	me-	4d\	me-	.	.	.	.
!	!	!	!	!LO:LB:g=original	!	!	!	!	!
2E-\	-zogn'-	2G/	-zogn'-	2c\	-zog-	2r	.	2g/	e'l
=184-	=184-	=184-	=184-	=184-	=184-	=184-	=184-	=184-	=184-
2D/	-e'l	2A/	-e'l	1d	-ne	2r	.	2f#X/	noſ-
1G\	no-	2B-\	no-	.	.	2d\	e'l	2g/	-tro
=185-	=185-	=185-	=185-	=185-	=185-	=185-	=185-	=185-	=185-
.	.	2d\	-ſtro	1r	.	2g\	noſ-	4b-\	ve
!	!	!	!	!	!	!	!	!LO:SIC:v:t=custos a-	!
.	.	.	.	.	.	.	.	4b-\	ro
!	!	!	!	!	!	!	!	!LO:LB:g=original	!
2F\	-ſtro	2A/	ve-	.	.	2c/	-tro	2.a\	iner-
=186-	=186-	=186-	=186-	=186-	=186-	=186-	=186-	=186-	=186-
2E-\	ve-	1B-	-ro	1r	.	2e-y\	ve-	.	.
.	.	.	.	.	.	.	.	4g/	.
2G\	-r'	.	.	.	.	2d\	-ro	2.g/	.
=187-	=187-	=187-	=187-	=187-	=187-	=187-	=187-	=187-	=187-
2D/	inter-	1A	inter-	2r	.	2d\	inter-	.	.
.	.	.	.	.	.	.	.	8f#X/	.
!	!	!	!	!	!	!	!	!LO:N:acc=#	!
.	.	.	.	.	.	.	.	8en/	.
4D/	-me	.	.	2d\	Co-	2A/	-me	2f#X/	.
4D/	Co-	.	.	.	.	.	.	.	.
=188-	=188-	=188-	=188-	=188-	=188-	=188-	=188-	=188-	=188-
4E-\	-me	2G/	-me	4B-\	-me	4r	.	2g/	-me
4E-\	ſo-	.	.	4G/	ſo-	4B-/	Co-	.	.
2D/	-uen-	4r	.	2d\	-uen-	4B-/	-me	2r	.
!	!	!LO:SIC:v:t=custos e-	!	!	!	!	!	!	!
.	.	4d\	Co-	.	.	4A/	ſo-	.	.
!	!	!LO:LB:g=original	!	!	!	!	!	!	!
=189-	=189-	=189-	=189-	=189-	=189-	=189-	=189-	=189-	=189-
2C/	-te	4e-\	-me	4G/	-te	2c/	-uen-	2r	.
*	*	*	*	*	*ij	*	*	*	*
.	.	4e-\	ſo-	4c\	Co-	.	.	.	.
4r	.	2d\	-uen-	4c\	-me	2F/	-te	4r	.
!LO:SIC:v:t=custos E-	!	!	!	!LO:N:acc=#	!	!	!	!	!
4G\	co-	.	.	4Bn\	ſo-	.	.	4d/	Co-
!LO:LB:g=original	!	!	!	!	!	!	!	!	!
=190-	=190-	=190-	=190-	=190-	=190-	=190-	=190-	=190-	=190-
4E-\	-me	2G/	-te	2c\	-uen-	4r	.	4e-y/	-me
*	*	*	*ij	*	*	*	*ij	*	*
4C/	ſo-	.	.	.	.	4c/	Co-	4e-/	ſo-
2G\	-uen-	4r	.	2d\	te	4c/	-me	2d/	-uen-
!	!	!	!	!	!	!LO:N:acc=#	!	!	!
.	.	4G/	Co-	.	.	4Bn/	ſo-	.	.
*	*	*	*	*	*	*	*	*	*
=191-	=191-	=191-	=191-	=191-	=191-	=191-	=191-	=191-	=191-
2C/	-te	4E-/	-me	4r	.	2c/	-uen-	2g/	-te
.	.	4C/	ſo-	4c\	Co-	.	.	.	.
4r	.	2G/	-uen-	4c\	-me	2d\	te	4r	.
!	!	!	!	!LO:N:acc=#	!	!	!	!	!
*	*ij	*	*	*	*	*	*Xij	*	*ij
4G\	co-	.	.	4Bn\	ſo-	.	.	4d/	Co-
=192-	=192-	=192-	=192-	=192-	=192-	=192-	=192-	=192-	=192-
4E-\	-me	2C/	te	2c\	-uen-	4r	.	4e-/	-me
4C/	ſo-	.	.	.	.	4g\	co-	4e-/	ſou-
2D/	-uen-	2r	.	2A/	te	4g\	-me	1d/	-en-
!	!	!	!	!	!	!LO:SIC:v:t=custos g	!	!	!
.	.	.	.	.	.	4f#X\	ſo-	.	.
!	!	!	!	!	!	!LO:LB:g=original	!	!	!
*	*	*	*Xij	*	*Xij	*	*	*	*
=193-	=193-	=193-	=193-	=193-	=193-	=193-	=193-	=193-	=193-
1GG	-te	1.B-	-Laſ-	2r	.	2g\	-uẽ(n)-	.	.
.	.	.	.	1d\	-Laſ-	2G/	-te	2g/	-te
*	*Xij	*	*	*	*	*	*	*	*Xij
=194-	=194-	=194-	=194-	=194-	=194-	=194-	=194-	=194-	=194-
1G	Laſ-	.	.	.	.	1r	.	1.g	laſ-
.	.	4A/	.	2d\	-ſo	.	.	.	.
.	.	4G/	.	.	.	.	.	.	.
=195-	=195-	=195-	=195-	=195-	=195-	=195-	=195-	=195-	=195-
1D	-ſo	2B-\	.	1r	.	0d	-Laſ-	.	.
.	.	2A/	-ſo	.	.	.	.	2f#X/	-ſi
=196-	=196-	=196-	=196-	=196-	=196-	=196-	=196-	=196-	=196-
2r	.	2B-\	ing-	0r	.	.	.	1r	.
2D/	in-	2F/	-ann' et	.	.	.	.	.	.
=197-	=197-	=197-	=197-	=197-	=197-	=197-	=197-	=197-	=197-
2E-\	-gan-	2G/	vin-	.	.	1c	-ſo	2r	.
!	!	!	!	!	!	!	!	!LO:SIC:v:t=custos b-	!
2F\	-nt e	2A/	-ci	.	.	.	.	2a\	in-
!	!	!	!	!	!	!	!	!LO:LB:g=original	!
=198-	=198-	=198-	=198-	=198-	=198-	=198-	=198-	=198-	=198-
!	!	!	!	!LO:SIC:v:t=custos c	!	!	!	!	!
2G\	vin-	1r	.	1d	-laſ-	2r	.	2b-\	-gen-
2D/	-ci	.	.	.	.	2d\	in-	2fny/	-n'et
!	!	!	!	!LO:LB:g=original	!	!	!	!	!
=199-	=199-	=199-	=199-	=199-	=199-	=199-	=199-	=199-	=199-
1r	.	2r	.	1c	-ſo	2e-\	-gãn'-	2g/	vin-
.	.	2A/	in-	.	.	2fny\	-e	2.f/	.
=200-	=200-	=200-	=200-	=200-	=200-	=200-	=200-	=200-	=200-
1G	Laſ-	2B-\	-gan-	1.B-y	laſ'	2g\	vin-	.	.
!	!	!	!	!	!	!	!	!LO:N:acc=#	!
.	.	.	.	.	.	.	.	8en/	.
.	.	.	.	.	.	.	.	8d/	.
!	!	!LO:SIC:v:t=custos d	!	!	!	!	!	!LO:N:acc=#	!
.	.	2c\	-ni e	.	.	2g\	-ci	2e/	.
!	!	!LO:LB:g=original	!	!	!	!	!	!	!
=201-	=201-	=201-	=201-	=201-	=201-	=201-	=201-	=201-	=201-
1D	-ſo	2d\	vin-	.	.	1r	.	0f	ci
.	.	2c\	ci	2A/	in-	.	.	.	.
=202-	=202-	=202-	=202-	=202-	=202-	=202-	=202-	=202-	=202-
2r	.	0r	.	2B-\	-gan	1d	in-	.	.
!LO:SIC:v:t=custos E-	!	!	!	!	!	!	!	!	!
2D/	in-	.	.	2F/	ni e	.	.	.	.
!LO:LB:g=original	!	!	!	!	!	!	!	!	!
=203-	=203-	=203-	=203-	=203-	=203-	=203-	=203-	=203-	=203-
2E-\	-gan-	.	.	1G	vin-	2B-y/	-gã-	2r	.
2C/	-nt e	.	.	.	.	2c/	-n'e	1g\	laſ-
=204-	=204-	=204-	=204-	=204-	=204-	=204-	=204-	=204-	=204-
1D	uin-	2r	.	1d	-ci	2B-/	vin-	.	.
*	*	*	*ij	*	*	*	*	*	*
.	.	2D/	in-	.	.	4.A/	-ci	2f#X/	-ſo
.	.	.	.	.	.	8B-/	.	.	.
=205-	=205-	=205-	=205-	=205-	=205-	=205-	=205-	=205-	=205-
!	!	!LO:N:acc=#	!	!	!	!	!	!	!
1AAny	ci	2En/	-gan-	2r	.	1c	.	1a	laſ-
.	.	2F/	-ni e	2A/	in-	.	.	.	.
=206-	=206-	=206-	=206-	=206-	=206-	=206-	=206-	=206-	=206-
1r	.	2G/	vin-	2B-\	-gan-	0r	.	2g/	-ſo
.	.	2A/	ci	2c\	-ni e	.	.	2.fny/	in-
*	*	*	*Xij	*	*	*	*	*	*
=207-	=207-	=207-	=207-	=207-	=207-	=207-	=207-	=207-	=207-
1D	laſ-	2r	.	1d	uin-	.	.	.	-gan-
.	.	.	.	.	.	.	.	4g\	.
.	.	1F/	laſ-	.	.	.	.	4a\	.
.	.	.	.	.	.	.	.	4b-\	.
=208-	=208-	=208-	=208-	=208-	=208-	=208-	=208-	=208-	=208-
1C	-ſo	.	.	1G	ci	1g	in-	2.cc\	.
!	!	!LO:N:acc=#	!	!	!	!	!	!	!
.	.	2En/	-ſo	.	.	.	.	.	.
.	.	.	.	.	.	.	.	4b-\	.
=209-	=209-	=209-	=209-	=209-	=209-	=209-	=209-	=209-	=209-
1r	.	2F/	ingan-	1r	.	2f\	-ga-	2a\	.
.	.	2G/	-ni et	.	.	2d\	-n'e	1g\	-n'et
=210-	=210-	=210-	=210-	=210-	=210-	=210-	=210-	=210-	=210-
1r	.	0A	vin-	1r	.	2c#X/	vin-	.	.
.	.	.	.	.	.	2.d\	.	2f/	vin-
=211-	=211-	=211-	=211-	=211-	=211-	=211-	=211-	=211-	=211-
!	!	!	!	!	!	!	!	!LO:N:acc=#	!
1AA	in-	.	.	1A	in-	.	.	1en	-ci
.	.	.	.	.	.	8c#X/	.	.	.
!	!	!	!	!	!	!LO:N:acc=#	!	!	!
.	.	.	.	.	.	8Bn/	.	.	.
!	!	!	!	!	!	!LO:N:acc=#	!	!	!
.	.	.	.	.	.	2c#/	.	.	.
=212-	=212-	=212-	=212-	=212-	=212-	=212-	=212-	=212-	=212-
2BB-/	-gan-	00D	ci.	2F/	-gan-	00d	ci.-	2r	.
2FF/	-nt e	.	.	2A/	-ni e	.	.	2a\	cin-
=213-	=213-	=213-	=213-	=213-	=213-	=213-	=213-	=213-	=213-
1GG	uin-	.	.	1G	uin-	.	.	1b-	.
=214-	=214-	=214-	=214-	=214-	=214-	=214-	=214-	=214-	=214-
00D/	-ci	.	.	00F#X	-ci.	.	.	00a	-ci.
=215-	=215-	=215-	=215-	=215-	=215-	=215-	=215-	=215-	=215-
.	.	1ryy	.	.	.	1ryy	.	.	.
=216-	=216-	=216-	=216-	=216-	=216-	=216-	=216-	=216-	=216-
.	.	1ryy	.	.	.	1ryy	.	.	.
==	==	==	==	==	==	==	==	==	==
*-	*-	*-	*-	*-	*-	*-	*-	*-	*-
!!!system-decoration: [(s1,s2,s3,s4,s5)]
!!!ENC: Marta Opryszak
!!!END: 2022-06-16
!!!ENC: Jan Barakat
!!!END: 2022-07-22
